X: 2
T: The Lonesome Boatman
R: reel
M: 4/4
L: 1/8
K: Dmaj
fe|f4-fgfe|fB4ABc|d4-ddcB|AF3-F4-|-F4-F2fe|f4-fgfe|fB3-BABc|d4-ded/c/B| c4 F2A2|B8-|-B6 :|:f2| ^g8-|-^g6e2|f8-|-f6f2|^g8-|-^g6e2|f8-|-f4-fff/e/d/c/|d6 e/d/c/B/|c4-cBBA| F8-|-F6fe|f4-fgfe|fB4ABc|d4-ded/c/B|c4F2A2| B8-|-B6||


Tune 6195	Setting 6195

